templates/main/source/images/new.svg

<?xml version="1.0" encoding="utf-8"?>
<svg width="40px" height="40px" viewBox="0 0 40 40" version="1.1" xmlns:xlink="http://www.w3.org/1999/xlink" xmlns="http://www.w3.org/2000/svg">
  <desc>Created with Lunacy</desc>
  <g id="new">
    <path d="M20 40C31.0457 40 40 31.0457 40 20C40 8.9543 31.0457 0 20 0C8.9543 0 0 8.9543 0 20C0 31.0457 8.9543 40 20 40Z" id="Oval" fill="#31B64B" stroke="none" />
    <path d="M17.2929 0.0245987L20.2325 8.69565L21.8806 8.69565L23.8239 3.06254L25.7672 8.69565L27.4153 8.69565L30.3548 0.0245987L28.3746 0.0245987L26.5912 5.8545L24.6602 0L23.0367 0L21.1057 5.8545L19.3223 0.0245987L17.2929 0.0245987ZM0 0.0245987L0 8.63416L1.8695 8.63416L1.8695 3.16094L6.03899 8.63416L7.65021 8.63416L7.65021 0.0245987L5.7807 0.0245987L5.7807 5.32563L1.74651 0.0245987L0 0.0245987ZM9.7165 8.63416L9.7165 0.0245987L16.2106 0.0245987L16.2106 1.70961L11.5983 1.70961L11.5983 3.45612L15.6571 3.45612L15.6571 5.14113L11.5983 5.14113L11.5983 6.94914L16.2721 6.94914L16.2721 8.63416L9.7165 8.63416Z" transform="translate(5.217391 15.652173)" id="NEW" fill="#FFFFFF" fill-rule="evenodd" stroke="none" />
  </g>
</svg>

<svg width="40" height="40" viewBox="0 0 40 40" xmlns:xlink="http://www.w3.org/1999/xlink" xmlns="http://www.w3.org/2000/svg"><g id="new" stroke="none"><path d="M20 40c11.046 0 20-8.954 20-20S31.046 0 20 0 0 8.954 0 20s8.954 20 20 20z" id="Oval" fill="#31B64B"/><path d="M17.293.025l2.94 8.67h1.648l1.943-5.632 1.943 5.633h1.648l2.94-8.671h-1.98l-1.784 5.83L24.661 0h-1.624l-1.931 5.854-1.784-5.83h-2.03zM0 .025v8.61h1.87V3.16l4.169 5.473H7.65V.024H5.78v5.302L1.748.025H0zm9.716 8.61V.024h6.495V1.71h-4.613v1.746h4.06v1.685h-4.06V6.95h4.674v1.685H9.717z" transform="translate(5.217 15.652)" id="NEW" fill="#FFF" fill-rule="evenodd"/></g></svg>
